X:1
T:Title
%%score ( 1 2 ) { 3 | 4 }
L:1/8
Q:1/4=112
M:4/4
K:C
V:1 treble nm="Grand Piano, Soprano"
V:2 treble 
V:3 bass nm="Choir Pad, A Mighty Victor"
V:4 bass 
V:1
 G2 [Ec]2 [Ec]2 [Ec]2 | [Ec]2 [Ec]2 [CE]4 | [CE]2 [EG]2 [EA]2 [EG]2 | [EA]2 [EG]4 G2 | %4
w: By~Charles~Hutchinson~Gabriel * * *||||
 G2 [FB]2 [FB]2 [FB]2 | [FB]2 [FB]2 [B,F]4 | [B,FG]2 [FA]2 [FB]2 [FA]2 | [FB]2 [EG]6 | %8
w: ||||
 G2 [Ec]2 [Ec]2 [Ec]2 | [Ec]2 [Ec]2 E4 | C2 [FA]2 [FA]2 [GA]2 | [GA]2 A6 | %12
w: ||||
 A2 [DGd]2 [DGd]2 [D^Fcd]2 | [D^Fcd]2 [DBd]2 [DGB]4 | G2 [D^FA]2 [DFAd]2 [DFA]2 | %15
w: |||
 [D^FAd]2 [B,DG]6 | G2 [df]2 [ce]2 [Bd]2 | [Ac]2 [GB]2- [GB][FA] [EG]2 | [DF]2 [CE]2 [EG]2 [Gc]2 | %19
w: ||||
 [Gd]2 [Ge]6 | [EG]2 [FA]2 [GB]2 [Gc]2 | [Gd]2 e2 c2 [FA]2 | [^Fd]2 [GB]2 G2 [FA]2 | [FB]2 [Ec]6- | %24
w: |||||
 [Ec]2 z2 z4 |] %25
w: |
V:2
 x8 | x8 | x8 | x8 | x8 | x8 | x8 | x8 | x8 | x8 | x8 | z2 F4 [D^F]2- | [DF]2 z2 z4 | x8 | x8 | %15
 x8 | x8 | x8 | x8 | x8 | x8 | z2 G4 z2 | x8 | x8 | x8 |] %25
V:3
 G,2 G,4 G,2- | G,2 G,4 G,2- | G,2[K:treble] C4 C2- | C2 C4 C2- | C2[K:bass] G,4 G,2- | %5
 G,2 G,4 G,2- | G,2 G,4 G,2- | G,2 C,2 C2 G,2 | E,2 G,4 G,2- | G,2 G,4[K:treble] C2- | C2 C4 ^C2- | %11
 C2 D4 =C2- | C2[K:bass] B,4 A,2- | A,2 G,4 B,,2- | B,,2 C4 C2- | C2 G,2 D,2 G,,2 | %16
 G,2 G,2 G,2 G,2 | G,2 D4 G,2 | G,2 G,2[K:treble] C2 C2 | B,2 C6 | C2 C2 D2 C2 | B,2 C2 E,2 C2 | %22
 C2[K:treble] D2 B,2 C2 | D2 C6- | C2 z2 z4 |] %25
V:4
 z2 C,4 G,,2- | G,,2 C,4 G,,2- | G,,2 C,4 G,,2- | G,,2 C,4 E,2- | E,2 D,4 G,,2- | G,,2 D,4 G,,2- | %6
 G,,2 B,,4 G,,2- | G,,2 z2 z4 | z2 C,4 G,,2- | G,,2 C,4 E,2- | E,2 F,4 E,2- | E,2 D,4 C,2- | %12
 C,2 B,,4 A,,2- | A,,2 G,,4 z2 | z2 D,4 D,2- | D,2 z2 z4 | z8 | z2 G,4 z2 | z2 C,2 C,2 E,2 | %19
 G,2 z2 z4 | C,2 F,2 D,2 E,2 | G,2 z2 z2 F,2 | D,2 G,2 G,2 G,2 | G,2 [C,G,]6- | [C,G,]2 z2 z4 |] %25

